projects/flag-game/flags/Luxembourg.svg

<svg viewBox="0 0 1000 600" xmlns="http://www.w3.org/2000/svg"><g fill-rule="evenodd"><path d="m0 300h1000v300h-1000zm0 0" fill="#00a1de"/><path d="m0 0h1000v300h-1000zm0 0" fill="#ed2939"/><path d="m0 200h1000v200h-1000zm0 0" fill="#fff"/></g></svg>

<?xml version="1.0" encoding="UTF-8"?>
<svg xmlns="http://www.w3.org/2000/svg" xmlns:xlink="http://www.w3.org/1999/xlink" viewBox="0 0 1000 600" version="1.1">
<g id="surface710">
<path style=" stroke:none;fill-rule:evenodd;fill:rgb(0%,63.136292%,87.057495%);fill-opacity:1;" d="M 0 300 L 1000 300 L 1000 600 L 0 600 Z M 0 300 "/>
<path style=" stroke:none;fill-rule:evenodd;fill:rgb(92.939758%,16.078186%,22.3526%);fill-opacity:1;" d="M 0 0 L 1000 0 L 1000 300 L 0 300 Z M 0 0 "/>
<path style=" stroke:none;fill-rule:evenodd;fill:rgb(99.998474%,99.998474%,99.998474%);fill-opacity:1;" d="M 0 200 L 1000 200 L 1000 400 L 0 400 Z M 0 200 "/>
</g>
</svg>
